inst/assets/svg/wi-fire.svg

<?xml version="1.0" encoding="UTF-8"?>
<svg xmlns="http://www.w3.org/2000/svg" xmlns:xlink="http://www.w3.org/1999/xlink" width="30pt" height="30pt" viewBox="0 0 30 30" version="1.1">
<g id="surface236">
<path style=" stroke:none;fill-rule:nonzero;fill:rgb(0%,0%,0%);fill-opacity:1;" d="M 7.378906 21.828125 C 7.378906 21.53125 7.480469 21.28125 7.671875 21.070313 C 7.859375 20.859375 8.101563 20.761719 8.371094 20.761719 L 8.371094 20.738281 L 21.53125 20.78125 C 21.589844 20.769531 21.628906 20.761719 21.628906 20.761719 C 21.898438 20.769531 22.140625 20.878906 22.328125 21.089844 C 22.519531 21.300781 22.621094 21.558594 22.609375 21.859375 C 22.609375 22.160156 22.511719 22.410156 22.320313 22.621094 C 22.128906 22.828125 21.890625 22.929688 21.621094 22.929688 L 21.621094 22.941406 L 8.589844 22.898438 C 8.488281 22.910156 8.421875 22.921875 8.371094 22.921875 C 8.089844 22.910156 7.859375 22.808594 7.671875 22.601563 C 7.46875 22.390625 7.371094 22.128906 7.378906 21.828125 Z M 8.199219 16.371094 C 8.191406 15.941406 8.238281 15.441406 8.359375 14.851563 C 8.421875 14.550781 8.558594 14.089844 8.800781 13.480469 C 8.820313 13.429688 8.871094 13.339844 8.929688 13.199219 C 8.941406 13.21875 8.960938 13.230469 8.96875 13.25 C 8.980469 13.269531 8.988281 13.269531 8.988281 13.28125 C 9.101563 13.71875 9.261719 14.121094 9.480469 14.480469 C 9.691406 14.800781 9.960938 15.039063 10.300781 15.171875 C 10.558594 15.28125 10.929688 15.339844 11.398438 15.351563 C 11.421875 15.351563 11.449219 15.351563 11.480469 15.351563 C 11.511719 15.351563 11.539063 15.351563 11.558594 15.351563 C 11.230469 15.019531 10.96875 14.679688 10.769531 14.351563 C 10.46875 13.828125 10.28125 13.230469 10.199219 12.539063 C 10.140625 12 10.171875 11.351563 10.289063 10.578125 C 10.308594 10.429688 10.410156 10.089844 10.578125 9.570313 C 10.730469 9.101563 10.941406 8.671875 11.21875 8.289063 C 11.539063 7.800781 12 7.300781 12.609375 6.78125 C 12.980469 6.46875 13.5 6.109375 14.171875 5.710938 C 14.238281 5.671875 14.351563 5.601563 14.519531 5.519531 C 14.519531 5.539063 14.519531 5.558594 14.519531 5.570313 C 14.519531 5.578125 14.519531 5.601563 14.519531 5.609375 L 14.519531 5.628906 C 14.28125 6.199219 14.109375 6.78125 14.03125 7.359375 C 13.96875 7.890625 14.050781 8.378906 14.269531 8.839844 C 14.441406 9.199219 14.75 9.589844 15.191406 9.988281 C 15.28125 10.078125 15.480469 10.28125 15.789063 10.570313 C 16.089844 10.859375 16.328125 11.089844 16.488281 11.25 L 16.738281 11.5 C 17 11.121094 17.148438 10.671875 17.179688 10.148438 C 17.21875 9.601563 17.179688 9 17.039063 8.351563 C 17.039063 8.339844 17.039063 8.308594 17.050781 8.238281 C 17.070313 8.261719 17.179688 8.339844 17.351563 8.480469 C 17.910156 8.980469 18.328125 9.429688 18.628906 9.820313 C 19.109375 10.441406 19.460938 11.03125 19.691406 11.558594 C 19.878906 12.019531 20 12.480469 20.070313 12.960938 C 20.128906 13.378906 20.148438 13.730469 20.140625 14.011719 C 20.128906 14.789063 20.039063 15.441406 19.890625 15.96875 C 19.820313 16.179688 19.761719 16.351563 19.699219 16.488281 C 19.949219 16.421875 20.171875 16.328125 20.351563 16.230469 C 20.601563 16.070313 20.800781 15.859375 20.949219 15.570313 C 21.109375 15.28125 21.238281 14.949219 21.328125 14.589844 C 21.328125 14.578125 21.339844 14.558594 21.359375 14.539063 C 21.371094 14.558594 21.378906 14.589844 21.410156 14.628906 C 21.429688 14.671875 21.449219 14.699219 21.460938 14.730469 C 21.589844 15.039063 21.679688 15.359375 21.730469 15.699219 C 21.808594 16.078125 21.828125 16.449219 21.808594 16.828125 C 21.789063 17.121094 21.738281 17.390625 21.648438 17.640625 C 21.570313 17.878906 21.488281 18.070313 21.429688 18.21875 C 21.238281 18.601563 21.039063 18.929688 20.808594 19.199219 C 20.75 19.269531 20.699219 19.328125 20.671875 19.359375 L 9.671875 19.359375 C 9.660156 19.351563 9.640625 19.328125 9.601563 19.300781 C 9.558594 19.269531 9.539063 19.25 9.519531 19.230469 C 9.261719 18.980469 8.980469 18.601563 8.699219 18.101563 C 8.621094 17.949219 8.519531 17.71875 8.410156 17.410156 C 8.289063 17.101563 8.21875 16.75 8.199219 16.371094 Z M 8.199219 16.371094 "/>
</g>
</svg>

<?xml version="1.0" encoding="utf-8"?>
<!-- Generator: Adobe Illustrator 22.0.1, SVG Export Plug-In . SVG Version: 6.00 Build 0)  -->
<svg version="1.1" id="Layer_1" xmlns="http://www.w3.org/2000/svg" xmlns:xlink="http://www.w3.org/1999/xlink" x="0px" y="0px"
	 viewBox="0 0 30 30" style="enable-background:new 0 0 30 30;" xml:space="preserve">
<path d="M7.38,21.83c0-0.3,0.1-0.55,0.29-0.76c0.19-0.21,0.43-0.31,0.7-0.31v-0.02l13.16,0.04c0.06-0.01,0.1-0.02,0.1-0.02
	c0.27,0.01,0.51,0.12,0.7,0.33c0.19,0.21,0.29,0.47,0.28,0.77c0,0.3-0.1,0.55-0.29,0.76c-0.19,0.21-0.43,0.31-0.7,0.31v0.01
	L8.59,22.9c-0.1,0.01-0.17,0.02-0.22,0.02c-0.28-0.01-0.51-0.11-0.7-0.32C7.47,22.39,7.37,22.13,7.38,21.83z M8.2,16.37
	c-0.01-0.43,0.04-0.93,0.16-1.52c0.06-0.3,0.2-0.76,0.44-1.37c0.02-0.05,0.07-0.14,0.13-0.28c0.01,0.02,0.03,0.03,0.04,0.05
	s0.02,0.02,0.02,0.03c0.11,0.44,0.27,0.84,0.49,1.2c0.21,0.32,0.48,0.56,0.82,0.69c0.26,0.11,0.63,0.17,1.1,0.18
	c0.02,0,0.05,0,0.08,0c0.03,0,0.06,0,0.08,0c-0.33-0.33-0.59-0.67-0.79-1c-0.3-0.52-0.49-1.12-0.57-1.81
	c-0.06-0.54-0.03-1.19,0.09-1.96c0.02-0.15,0.12-0.49,0.29-1.01c0.15-0.47,0.36-0.9,0.64-1.28C11.54,7.8,12,7.3,12.61,6.78
	c0.37-0.31,0.89-0.67,1.56-1.07c0.07-0.04,0.18-0.11,0.35-0.19c0,0.02,0,0.04,0,0.05s0,0.03,0,0.04v0.02
	c-0.24,0.57-0.41,1.15-0.49,1.73c-0.06,0.53,0.02,1.02,0.24,1.48c0.17,0.36,0.48,0.75,0.92,1.15c0.09,0.09,0.29,0.29,0.6,0.58
	c0.3,0.29,0.54,0.52,0.7,0.68l0.25,0.25c0.26-0.38,0.41-0.83,0.44-1.35c0.04-0.55,0-1.15-0.14-1.8c0-0.01,0-0.04,0.01-0.11
	c0.02,0.02,0.13,0.1,0.3,0.24c0.56,0.5,0.98,0.95,1.28,1.34c0.48,0.62,0.83,1.21,1.06,1.74c0.19,0.46,0.31,0.92,0.38,1.4
	c0.06,0.42,0.08,0.77,0.07,1.05c-0.01,0.78-0.1,1.43-0.25,1.96c-0.07,0.21-0.13,0.38-0.19,0.52c0.25-0.07,0.47-0.16,0.65-0.26
	c0.25-0.16,0.45-0.37,0.6-0.66c0.16-0.29,0.29-0.62,0.38-0.98c0-0.01,0.01-0.03,0.03-0.05c0.01,0.02,0.02,0.05,0.05,0.09
	c0.02,0.04,0.04,0.07,0.05,0.1c0.13,0.31,0.22,0.63,0.27,0.97c0.08,0.38,0.1,0.75,0.08,1.13c-0.02,0.29-0.07,0.56-0.16,0.81
	c-0.08,0.24-0.16,0.43-0.22,0.58c-0.19,0.38-0.39,0.71-0.62,0.98c-0.06,0.07-0.11,0.13-0.14,0.16H9.67
	c-0.01-0.01-0.03-0.03-0.07-0.06s-0.06-0.05-0.08-0.07C9.26,18.98,8.98,18.6,8.7,18.1c-0.08-0.15-0.18-0.38-0.29-0.69
	C8.29,17.1,8.22,16.75,8.2,16.37z"/>
</svg>
